!!!SOCIAL_FUNCTION:	songs used in the treatment of the sick
!!!PDT:	1929
!!!OTL: No_65_Song_Concerning_the_White_Mountain.krn
!!!REG: Southwest
!!!LANG: Non-Tone
!!!LING_GROUP: Uto-Aztecan
**kern
*staff1
=1-
*clefF4
*k[b-]
*M2/4
4A\
8A\L
8F\J
=2
4A\
8A\L
8A\J
=3
(8.E\L
16D\Jk)
4E\
=4!|:
*M3/4
4B-\
4B-;\
8A\L
16.E\L
32E\JJk
=5||
*M2/4
8D\L
8D\J
8AA/L
(16.D/L
32AA/JJk)
=6
4D\
4r
=7
8.D\L
16E\Jk
(16E\LK
8.D\J)
=8
16D\LL
16D\J
8E\J
8.D\L
16D\Jk
=9
4D\
8AA/
8r
=10
4D\
(16E\LL
16D\)
16E\
16D\JJ
=11||
*M3/4
8D\L
[8D\J
4D\]
8.D/L
16AA/Jk
=12||
*M2/4
8.D\L
16D\Jk
8.D\L
16D\Jk
=13
2D\
==:|!
*-
